!!!COM: Bach, Johann Sebastian
!!!OPR: Joh. Seb. Bachs vierstimmige Choralgesänge
!!!XEN: Four-part Chorales
!!!OTL: 151. O Traurigkeit, o Herzeleid
!!!SCT: BWV 404
!!!SCA: Thematisch-systematisches Verzeichnis der musikalischen Werke Johann Sebastian Bach: Bach-Werke-Verzeichnis (Schmieder)
!!!YOR: Bach Gesellschaft Edition xxxix
!!!ENC: Steven Rasmussen
!!!CDT: 1685/3//-1750/7/28/
!!!OCY: Deutschland
!!!YEC: Copyright (c) 1994, 2000 Center for Computer Assisted Research in the Humanities
!!!YEM: Rights to all derivative editions reserved
!!!YEN: United States of America
**kern	**silbe	**kern	**kern	**kern
*I:[SOPRANO]	*I:[SOPRANO]	*I:[ALTO]	*I:[TENORE]	*I:[BASSO]
*clefG2	*	*clefG2	*clefGv2	*clefF4
*k[]	*	*k[]	*k[]	*k[]
*a:	*	*a:	*a:	*a:
*M4/4	*	*M4/4	*M4/4	*M4/4
4ee	O	4g#	4B	4E
=1	=1	=1	=1	=1
8ccL	Trau-	4e	8AL	4A
8bJ	.	.	8G#J	.
4cc	-rig-	8eL	4F#	4AA
.	.	8d#J	.	.
4b;	-keit,	4e;	4G#;	4E;
4g#	o	4e	4B	4D
=2	=2	=2	=2	=2
4a	Her-	4e	4c	4C
4a	-ze-	4d	8BL	4F
.	.	.	8AJ	.
4g#;	-leid!	4e;	4B;	4E;
4ee	Ist	4g#	4B	4E
=3	=3	=3	=3	=3
4ee	das	4a	4c	4A
4ee	nicht	4b	4B	4G#
4ff	zu	4a	8cL	8AL
.	.	.	8dJ	8BJ
8eeL	be-	4g	8eL	4c
8ddJ	.	.	8cJ	.
=4	=4	=4	=4	=4
2dd	-kla-	4a	4c	4F#
.	.	8gL	4B	4G
.	.	8fJ	.	.
2cc;	-gen?	2e;	2c;	2C;
=5	=5	=5	=5	=5
4b	Got-	4g	4d	4G
4cc	-tes	8fL	4c	4A
.	.	8eJ	.	.
4dd	Va-	8dL	4g	4B
.	.	8ddJ	.	.
4ee	-ters	4cc	8GL	4c
.	.	.	8AJ	.
=6	=6	=6	=6	=6
4dd	ei-	4b	8BL	4G#
.	.	.	8EJ	.
4cc	-nigs	4a	4e	4A
2b;	Kind	2g#;	2e;	2E;
=7	=7	=7	=7	=7
4a	wird	4e	8eL	4F#
.	.	.	8dJ	.
4b	zu	4e	8dL	4G#
.	.	.	8cJ	.
4cc	Grab	4e	8cL	8AL
.	.	.	8BJ	8GnJ
8ddL	ge-	8aL	4A	8FnL
8eeJ	.	8gJ	.	8EJ
=8	=8	=8	=8	=8
2b	-tra-	4f	4A	4D
.	.	8eL	4G#	4E
.	.	8dJ	.	.
2a;	-gen.	2c;	2E;	2AA;
==|!	==|!	==|!	==|!	==|!
*-	*-	*-	*-	*-
!!!RWG: Key is interpreted using the Humdrum key tool.
!!!END: 1994/07/29
!!!EMD: Converted from MuseData to Humdrum Dec 19, 2000, by Andreas Kornstaedt using muse2kern.
!!!EED: Craig Stuart Sapp
!!!EEV: 2024/03/31
!!!ONB: Some non-unicode characters
